packages/icons/svg/Media_Pdf_64px.svg

<svg xmlns="http://www.w3.org/2000/svg" viewBox="0 0 64 64"><path d="M51 19.5a1.49 1.49 0 00-.52-1.13l-.07-.08-12.7-12.7-.08-.07A1.49 1.49 0 0036.5 5H15a2 2 0 00-2 2v50a2 2 0 002 2h34a2 2 0 002-2V19.71v-.11-.1zm-13-9.38L45.88 18H38zM16 56V8h19v11a2 2 0 002 2h11v35z"/><path d="M25.67 43.57a4.23 4.23 0 00-1.67-.32h-3v8.25h2v-2.75h1a4.11 4.11 0 001.69-.33 2.65 2.65 0 001.17-1 2.61 2.61 0 00.38-1.42 2.52 2.52 0 00-1.57-2.4zm-.83 3.3a1.49 1.49 0 01-1 .31H23v-2.35h.89a1.5 1.5 0 011 .29 1 1 0 01.35.86 1.11 1.11 0 01-.4.89zM31.71 43.25h-3.09v8.25h3.09a4.18 4.18 0 002.94-1 4.1 4.1 0 001.09-3.12 4.07 4.07 0 00-1.09-3.12 4.18 4.18 0 00-2.94-1.01zm1.4 6.11a2.28 2.28 0 01-1.6.56h-.9v-5.09h.9a2.28 2.28 0 011.61.55 2.69 2.69 0 01.59 2 2.67 2.67 0 01-.6 1.98zM37.32 51.5h1.99v-3.16h3.06v-1.53h-3.06v-1.98H43v-1.58h-5.68v8.25z"/></svg>

<svg xmlns="http://www.w3.org/2000/svg" viewBox="0 0 64 64"><defs></defs><g id="Icon"><path  d="M51,19.5a1.49,1.49,0,0,0-.52-1.13l-.07-.08L37.71,5.59l-.08-.07A1.49,1.49,0,0,0,36.5,5H15a2,2,0,0,0-2,2V57a2,2,0,0,0,2,2H49a2,2,0,0,0,2-2V19.71s0-.07,0-.11S51,19.53,51,19.5ZM38,10.12,45.88,18H38ZM16,56V8H35V19a2,2,0,0,0,2,2H48V56Z"/><path  d="M25.67,43.57A4.23,4.23,0,0,0,24,43.25H21V51.5h2V48.75h1a4.11,4.11,0,0,0,1.69-.33,2.65,2.65,0,0,0,1.17-1A2.61,2.61,0,0,0,27.24,46a2.52,2.52,0,0,0-1.57-2.4Zm-.83,3.3a1.49,1.49,0,0,1-1,.31H23V44.83h.89a1.5,1.5,0,0,1,1,.29,1,1,0,0,1,.35.86A1.11,1.11,0,0,1,24.84,46.87Z"/><path  d="M31.71,43.25H28.62V51.5h3.09a4.18,4.18,0,0,0,2.94-1,4.1,4.1,0,0,0,1.09-3.12,4.07,4.07,0,0,0-1.09-3.12A4.18,4.18,0,0,0,31.71,43.25Zm1.4,6.11a2.28,2.28,0,0,1-1.6.56h-.9V44.83h.9a2.28,2.28,0,0,1,1.61.55,2.69,2.69,0,0,1,.59,2A2.67,2.67,0,0,1,33.11,49.36Z"/><polygon  points="37.32 51.5 39.31 51.5 39.31 48.34 42.37 48.34 42.37 46.81 39.31 46.81 39.31 44.83 43 44.83 43 43.25 37.32 43.25 37.32 51.5"/></g></svg>
